src/assets/duotone/MessageEdit.svg

<svg width="24" height="24" viewBox="0 0 24 24"  xmlns="http://www.w3.org/2000/svg">
<path opacity="0.4" d="M16 2H8C4 2 2 4 2 8V21C2 21.55 2.45 22 3 22H16C20 22 22 20 22 16V8C22 4 20 2 16 2Z" />
<path d="M16.5499 7.46019C15.2899 6.20019 14.0699 6.17019 12.7799 7.46019L11.9899 8.25019C11.9199 8.32019 11.9 8.42019 11.92 8.51019C12.41 10.2302 13.7799 11.6002 15.4999 12.0902C15.5199 12.1002 15.5499 12.1002 15.5799 12.1002C15.6499 12.1002 15.7199 12.0702 15.7699 12.0202L16.5499 11.2402C17.1899 10.6002 17.4999 9.99019 17.4999 9.37019C17.4999 8.72019 17.1899 8.10019 16.5499 7.46019Z" />
<path d="M14.3399 12.6701C14.1499 12.5801 13.9699 12.4901 13.7999 12.3801C13.6599 12.3001 13.52 12.2101 13.39 12.1101C13.28 12.0401 13.1499 11.9401 13.0199 11.8301C12.9999 11.8201 12.9599 11.7901 12.9099 11.7301C12.6999 11.5501 12.4599 11.3101 12.2399 11.0601C12.2199 11.0501 12.1899 11.0001 12.1499 10.9401C12.0799 10.8601 11.9799 10.7301 11.8799 10.5901C11.7999 10.4901 11.7099 10.3501 11.6299 10.2101C11.5299 10.0401 11.4299 9.86012 11.3499 9.68012C11.2599 9.48012 11.1899 9.30012 11.1199 9.12012L7.34995 12.8901C7.09995 13.1401 6.86995 13.6001 6.81995 13.9401L6.52994 16.0201C6.45994 16.4601 6.58993 16.8701 6.85993 17.1501C7.08993 17.3801 7.40995 17.5001 7.75995 17.5001C7.83995 17.5001 7.90993 17.4901 7.98993 17.4801L10.07 17.1901C10.41 17.1401 10.8699 16.9101 11.1199 16.6601L14.89 12.8901C14.71 12.8201 14.5299 12.7501 14.3399 12.6701Z" />
</svg>

<?xml version="1.0" encoding="UTF-8"?>
<svg width="24" height="24" viewBox="0 0 24 24" xmlns="http://www.w3.org/2000/svg">
 <path d="m16 2h-8c-4 0-6 2-6 6v13c0 0.55 0.45 1 1 1h13c4 0 6-2 6-6v-8c0-4-2-6-6-6z" opacity=".4"/>
 <path d="m16.55 7.4602c-1.26-1.26-2.48-1.29-3.77 0l-0.79 0.79c-0.07 0.07-0.0899 0.17-0.0699 0.26 0.49 1.72 1.8599 3.09 3.5799 3.58 0.02 0.01 0.05 0.01 0.08 0.01 0.07 0 0.14-0.03 0.19-0.08l0.78-0.78c0.64-0.64 0.95-1.25 0.95-1.87 0-0.65-0.31-1.27-0.95-1.91z"/>
 <path d="m14.34 12.67c-0.19-0.09-0.37-0.18-0.54-0.29-0.14-0.08-0.2799-0.17-0.4099-0.27-0.11-0.07-0.2401-0.17-0.3701-0.28-0.02-0.01-0.06-0.04-0.11-0.1-0.21-0.18-0.45-0.42-0.67-0.67-0.02-0.01-0.05-0.06-0.09-0.12-0.07-0.08-0.17-0.21-0.27-0.35-0.08-0.1-0.17-0.24-0.25-0.38-0.1-0.17-0.2-0.34998-0.28-0.52998-0.09-0.2-0.16-0.38-0.23-0.56l-3.77 3.77c-0.25 0.25-0.48 0.71-0.53 1.05l-0.29001 2.08c-0.07 0.44 0.05999 0.85 0.32999 1.13 0.23 0.23 0.55002 0.35 0.90002 0.35 0.08 0 0.14998-0.01 0.22998-0.02l2.0801-0.29c0.34-0.05 0.7999-0.28 1.0499-0.53l3.7701-3.77c-0.18-0.07-0.3601-0.14-0.5501-0.22z"/>
</svg>
